client/img/icon/social/twitter.svg

<?xml version="1.0" encoding="UTF-8"?>
<svg width="32px" height="32px" viewBox="0 0 32 32" version="1.1" xmlns="http://www.w3.org/2000/svg" xmlns:xlink="http://www.w3.org/1999/xlink">
    <!-- Generator: sketchtool 47 (45396) - http://www.bohemiancoding.com/sketch -->
    <title>icon/social/twitter</title>
    <desc>Created with sketchtool.</desc>
    <defs>
        <path d="M25,10.73175 C24.33775,11.02575 23.626,11.22375 22.879,11.313 C23.64175,10.85625 24.2275,10.1325 24.50275,9.27 C23.7895,9.693 22.999,10.0005 22.1575,10.16625 C21.48475,9.4485 20.524,9 19.462,9 C17.07775,9 15.32575,11.2245 15.86425,13.53375 C12.796,13.38 10.075,11.91 8.25325,9.67575 C7.28575,11.3355 7.7515,13.50675 9.3955,14.60625 C8.791,14.58675 8.221,14.421 7.72375,14.14425 C7.68325,15.855 8.9095,17.4555 10.6855,17.81175 C10.16575,17.95275 9.5965,17.98575 9.0175,17.87475 C9.487,19.34175 10.8505,20.409 12.4675,20.439 C10.915,21.65625 8.959,22.2 7,21.969 C8.63425,23.01675 10.576,23.628 12.661,23.628 C19.5175,23.628 23.39125,17.83725 23.15725,12.6435 C23.87875,12.12225 24.505,11.472 25,10.73175 L25,10.73175 Z" id="path-1"></path>
    </defs>
    <g id="Symbols" stroke="none" stroke-width="1" fill="none" fill-rule="evenodd">
        <g id="icon/social/twitter">
            <mask id="mask-2" fill="white">
                <use xlink:href="#path-1"></use>
            </mask>
            <use id="twitter" fill="#000000" fill-rule="nonzero" xlink:href="#path-1"></use>
            <g id="color/solid/primary" mask="url(#mask-2)" fill="#4A90E2">
                <g transform="translate(-24.000000, -24.000000)" id="color">
                    <rect x="0" y="0" width="80" height="80"></rect>
                </g>
            </g>
        </g>
    </g>
</svg>

<?xml version="1.0" encoding="utf-8"?>
<!-- Generator: Adobe Illustrator 23.0.0, SVG Export Plug-In . SVG Version: 6.00 Build 0)  -->
<svg version="1.1" id="Layer_1" xmlns="http://www.w3.org/2000/svg" xmlns:xlink="http://www.w3.org/1999/xlink" x="0px" y="0px"
	 viewBox="0 0 32 32" style="enable-background:new 0 0 32 32;" xml:space="preserve">
<g>
	<path d="M25,10.7c-0.7,0.3-1.4,0.5-2.1,0.6c0.8-0.5,1.3-1.2,1.6-2c-0.7,0.4-1.5,0.7-2.3,0.9C21.5,9.4,20.5,9,19.5,9
		c-2.4,0-4.1,2.2-3.6,4.5c-3.1-0.2-5.8-1.6-7.6-3.9c-1,1.7-0.5,3.8,1.1,4.9c-0.6,0-1.2-0.2-1.7-0.5c0,1.7,1.2,3.3,3,3.7
		C10.2,18,9.6,18,9,17.9c0.5,1.5,1.8,2.5,3.4,2.6C10.9,21.7,9,22.2,7,22c1.6,1,3.6,1.7,5.7,1.7c6.9,0,10.7-5.8,10.5-11
		C23.9,12.1,24.5,11.5,25,10.7L25,10.7z"/>
</g>
</svg>
